<?xml version="1.0" encoding="UTF-8"?>
<map version="1.10" tiledversion="1.11.2" orientation="orthogonal" renderorder="right-down" width="30" height="20" tilewidth="32" tileheight="32" infinite="0" nextlayerid="2" nextobjectid="1">
 <tileset firstgid="1" source="Crater Planet Terrain.tsx"/>
 <layer id="1" name="Tile Layer 1" width="30" height="20">
  <data encoding="csv">
265,265,265,265,265,265,265,265,265,266,267,268,269,270,271,272,265,266,267,268,269,270,271,265,266,267,268,269,270,271,
265,266,267,268,269,270,271,272,265,266,267,268,269,270,271,272,265,266,267,268,269,270,271,265,266,267,268,269,270,271,
265,266,267,268,269,270,271,272,265,266,267,268,269,270,271,272,265,266,267,268,269,270,271,272,265,266,267,268,269,270,
265,266,267,268,269,270,271,272,265,266,267,268,269,270,271,272,265,266,267,268,269,270,271,272,265,266,267,268,269,270,
289,290,291,292,293,294,295,296,297,298,299,300,301,302,303,304,305,306,307,308,309,310,311,312,289,290,291,292,293,294,
313,314,315,316,317,318,319,320,321,322,323,324,325,326,327,328,329,330,331,332,333,334,335,336,313,314,315,316,317,318,
337,338,339,340,341,342,343,344,345,346,347,348,349,350,351,352,353,354,355,356,357,358,359,360,337,338,339,340,341,342,
361,362,363,364,365,366,367,368,369,370,371,372,373,374,375,376,377,378,379,380,381,382,383,384,361,362,363,364,365,366,
385,386,387,388,389,390,391,392,393,394,395,396,397,398,399,400,401,402,403,404,405,406,407,408,385,386,387,388,389,390,
265,266,267,268,269,270,265,265,266,267,268,269,270,271,265,266,267,268,265,265,265,265,266,267,268,269,270,271,272,273,
265,266,267,268,269,270,265,265,266,267,268,269,270,271,265,265,265,265,265,266,267,265,265,266,267,268,269,270,271,272,
265,266,267,268,269,270,265,265,266,267,268,269,270,271,265,266,267,268,269,270,271,272,265,266,267,268,269,270,271,272,
265,266,267,268,269,270,265,265,266,267,268,269,270,271,265,266,267,268,269,270,271,272,265,266,267,268,269,270,271,272,
265,266,267,268,269,270,265,265,265,266,267,268,269,270,265,266,267,268,269,270,271,272,265,266,267,268,269,270,271,272,
265,265,266,267,268,269,265,266,265,266,267,268,269,270,265,266,267,268,269,270,271,272,265,266,267,268,269,270,271,272,
265,265,265,266,267,265,265,266,265,266,267,268,269,270,265,266,267,268,269,270,271,272,265,266,267,268,269,270,271,272,
265,265,265,266,265,265,266,267,265,265,266,267,268,269,270,265,266,267,268,269,270,271,265,266,267,268,269,270,271,272,
265,266,265,265,265,266,267,268,269,265,266,267,268,269,270,271,272,265,266,267,268,269,265,266,267,268,269,270,271,272,
266,267,268,269,270,271,272,273,270,265,266,267,268,269,270,271,265,265,265,265,265,265,266,267,268,269,270,271,272,273,
267,268,269,270,271,272,273,270,271,265,265,265,265,265,265,265,265,265,265,265,265,265,265,265,266,267,268,269,270,271
</data>
 </layer>
</map>
